X:1
T:Title
%%score { 1 | 2 }
L:1/8
Q:1/4=100
M:4/4
K:Eb
V:1 treble nm="Grand Piano"
V:2 bass 
V:1
 G2 G>F E3 [DF] | GABc c2 B2 | [FA]2 [EG]>[DF] G3 E | EEDE [DF]4 | G2 G>F E3 [DF] | GABe e2 c2 | %6
w: C.~Harold~Lowden * * * *||||||
 c2 d>c BG[CGB][CFA] | [EG]2 [A,DF]2 [G,B,E]4 | B2 B>B B3 B | BBc[Ad] [Ge]2 [EGB]2 | %10
w: ||||
 [EAc]2 [EAc]>[EAc] [EGB]3 [B,EG] | [B,FA][B,FA][B,EG][B,EG] [B,DF]4 | G2 G>F E3 [DF] | %13
w: |||
 GABe e2 c2 | c2 d>c BGBA | G2 [DF]2 [B,E]4 |] %16
w: |||
V:2
 [E,B,E]2 [E,B,E]>[E,A,B,] [E,G,B,]3 [B,,B,] | [E,B,E][E,F,E][E,G,E][E,A,E] [E,A,E]2 [E,G,E]2 | %2
 [D,B,]2 [B,,B,]>[B,,B,] [E,B,E]3 [E,G,B,] | [F,=A,C][F,A,C][F,A,C][F,A,C] [B,,B,]4 | %4
 [E,B,E]2 [E,B,E]>[E,A,B,] [E,G,B,]3 [B,,B,] | %5
 [E,B,E][F,B,D][K:treble][G,B,E][G,B,E] [A,CE]2 [A,CE]2 | %6
 [=A,E_G]2 [A,DG]>[A,EG] [B,E=G][K:bass][=E,_D]F,F, | B,2 B,,2 E,4 | B,2 B,>B, B,3 B, | %9
 B,[K:treble][A,B,F][G,B,E][K:bass][F,B,] [E,B,]2 E,2 | A,2 A,>A, E,3 E, | D,D,E,E, B,,4 | %12
 [E,B,E]2 [E,B,E]>[E,A,B,] [E,G,B,]3 [B,,B,] | %13
 [E,B,E][F,B,D][K:treble][G,B,E][G,B,E] [A,CE]2 [A,CE]2 | %14
 [=A,E_G]2 [A,DG]>[A,EG] [B,E=G][K:bass][=E,_D][F,CG][F,CF] | [B,E]2 [B,,A,]2 [E,G,]4 |] %16

